X: 94
T:Andy De Jarlis
M:6/8
R:J
F:http://blackrosetheband.googlepages.com/ABCTUNES.ABC May 2009
S:Altan: Island Angel
C:Mike McDougall
K:E
EGB EGB|EGB c2B|EGB EGB|=DFA B2A|
EGB EGB|EGB c2a|gfe Bcd|1 efe e3:|2 efe ez a
|:g2e efg|aba c2e|f2f fge|dfB Bdf|
g2e efg|aba c2e|fgf Bcd|1efe ega:|2 efe e3||

